exports/animation-footnote.svg

<svg width="811" height="831" viewBox="0 0 811 831" fill="none" xmlns="http://www.w3.org/2000/svg" xmlns:xlink="http://www.w3.org/1999/xlink">
<path d="M559.549 713.524H348.627C300.562 713.524 261.592 674.548 261.592 626.477V88.567C261.592 40.4954 300.562 1.5199 348.627 1.5199H559.549C607.615 1.5199 646.585 40.4954 646.585 88.567V626.477C646.585 674.548 607.615 713.524 559.549 713.524Z" fill="white"/>
<path d="M454.73 682.637C473.362 682.637 488.466 667.53 488.466 648.896C488.466 630.262 473.362 615.156 454.73 615.156C436.098 615.156 420.994 630.262 420.994 648.896C420.994 667.53 436.098 682.637 454.73 682.637Z" fill="white"/>
<path d="M559.549 713.524H348.627C300.562 713.524 261.592 674.548 261.592 626.477V88.567C261.592 40.4954 300.562 1.5199 348.627 1.5199H559.549C607.615 1.5199 646.585 40.4954 646.585 88.567V626.477C646.585 674.548 607.615 713.524 559.549 713.524Z" stroke="#00BFFF" stroke-width="3" stroke-miterlimit="10" stroke-linecap="round" stroke-linejoin="round"/>
<path d="M454.73 682.637C473.362 682.637 488.466 667.53 488.466 648.896C488.466 630.262 473.362 615.156 454.73 615.156C436.098 615.156 420.994 630.262 420.994 648.896C420.994 667.53 436.098 682.637 454.73 682.637Z" stroke="#00BFFF" stroke-width="3" stroke-miterlimit="10" stroke-linecap="round" stroke-linejoin="round"/>
<g opacity="0.79">
<rect x="283.191" y="68.6536" width="336.999" height="519.676" fill="url(#pattern0)"/>
</g>
<path opacity="0.64" d="M619.366 200.101L536.126 285.303M616.396 119.873L500.27 228.633M409.648 464.292L282.766 595.877" stroke="white" stroke-width="19" stroke-miterlimit="10" stroke-linecap="round"/>
<path d="M623.174 68.9745H282.203V588.928H623.174V68.9745Z" stroke="#00BFFF" stroke-width="3" stroke-miterlimit="10" stroke-linecap="round" stroke-linejoin="round"/>
<path d="M194.513 764.54H707.933" stroke="#FF931E" stroke-width="4" stroke-miterlimit="10"/>
<path d="M197.784 783.923C208.488 783.923 217.165 775.245 217.165 764.54C217.165 753.835 208.488 745.157 197.784 745.157C187.081 745.157 178.404 753.835 178.404 764.54C178.404 775.245 187.081 783.923 197.784 783.923Z" fill="white" stroke="#FF931E" stroke-width="4" stroke-miterlimit="10"/>
<path d="M453.133 773.139C457.954 773.139 461.862 769.23 461.862 764.409C461.862 759.588 457.954 755.68 453.133 755.68C448.313 755.68 444.405 759.588 444.405 764.409C444.405 769.23 448.313 773.139 453.133 773.139Z" fill="#FF931E"/>
<path d="M707.135 773.27C711.955 773.27 715.863 769.361 715.863 764.54C715.863 759.719 711.955 755.811 707.135 755.811C702.314 755.811 698.406 759.719 698.406 764.54C698.406 769.361 702.314 773.27 707.135 773.27Z" fill="#FF931E"/>
<path d="M86.0815 824.103L88.5941 823.736C88.9343 826.014 90.3476 828.029 93.6191 828.029C95.6344 828.029 97.7544 827.191 97.7544 824.836C97.7544 822.637 96.3934 821.93 94.2211 821.485L91.5254 820.935C88.882 820.386 86.8667 818.998 86.8667 815.805C86.8667 812.69 89.3792 810.596 93.3443 810.596C97.0346 810.596 99.8612 812.245 100.228 815.884L97.7413 816.407C97.4272 813.92 96.0401 812.559 93.292 812.559C91.015 812.559 89.4447 813.685 89.4447 815.569C89.4447 817.376 90.413 818.318 92.4807 818.763L95.2026 819.339C98.0815 819.941 100.332 821.223 100.332 824.6C100.332 827.479 98.1862 830.071 93.5537 830.071C88.8035 830.084 86.3956 827.519 86.0815 824.103Z" fill="#FF931E"/>
<path d="M109.244 820.255L106.496 823.291V829.626H104.01V811.028H106.496V820.255L114.675 811.028H117.789L111.115 818.318L110.958 818.475L118.378 829.639H115.473L109.244 820.255Z" fill="#FF931E"/>
<path d="M133.218 829.639H121.506V811.041H133.034V813.135H123.992V819.051H132.589V821.145H123.992V827.532H133.218V829.639Z" fill="#FF931E"/>
<path d="M139.643 811.028V822.977C139.643 825.961 141.292 827.872 144.302 827.872C147.311 827.872 148.96 825.961 148.96 822.977V811.028H151.447V823.134C151.447 827.27 148.908 830.084 144.288 830.084C139.669 830.084 137.13 827.283 137.13 823.134V811.028H139.643Z" fill="#FF931E"/>
<path d="M156.315 811.028H159.848L164.768 825.333C165.082 826.249 165.135 826.406 165.239 827.087H165.292C165.396 826.406 165.449 826.249 165.763 825.333L170.683 811.028H174.216V829.626H171.939V815.268C171.939 814.509 171.966 813.881 172.044 813.279H171.939C171.887 813.646 171.625 814.771 171.39 815.399L166.469 829.626H164.062L159.141 815.399C158.906 814.771 158.644 813.646 158.592 813.279H158.487C158.565 813.881 158.592 814.509 158.592 815.268V829.626H156.315V811.028Z" fill="#FF931E"/>
<path d="M178.038 820.333C178.038 814.261 181.388 810.583 186.557 810.583C191.686 810.583 195.05 814.248 195.05 820.333C195.05 826.354 191.699 830.084 186.557 830.084C181.388 830.084 178.038 826.275 178.038 820.333ZM192.419 820.333C192.419 815.569 190.273 812.677 186.557 812.677C182.84 812.677 180.668 815.556 180.668 820.333C180.668 824.993 182.84 827.99 186.557 827.99C190.273 827.99 192.419 825.071 192.419 820.333Z" fill="#FF931E"/>
<path d="M205.1 821.904H201.331V829.639H198.844V811.041H205.741C210.609 811.041 211.891 813.763 211.891 816.486C211.891 818.58 210.818 820.857 207.704 821.564L212.467 829.639H209.667L205.1 821.904ZM201.331 819.81H205.44C208.319 819.81 209.261 818.344 209.261 816.486C209.261 814.575 208.293 813.135 205.44 813.135H201.331V819.81Z" fill="#FF931E"/>
<path d="M229.178 816.538C229.178 819.888 226.718 822.035 222.871 822.035H218.762V829.639H216.275V811.041H222.871C226.718 811.028 229.178 813.174 229.178 816.538ZM226.561 816.538C226.561 814.47 225.017 813.135 222.609 813.135H218.762V819.954H222.609C225.017 819.941 226.561 818.606 226.561 816.538Z" fill="#FF931E"/>
<path d="M246.687 829.639H244.201V821.171H234.818V829.639H232.332V811.041H234.818V819.09H244.201V811.041H246.687V829.639Z" fill="#FF931E"/>
<path d="M251.922 829.639V811.041H254.408V829.639H251.922Z" fill="#FF931E"/>
<path d="M257.824 824.103L260.336 823.736C260.676 826.014 262.09 828.029 265.361 828.029C267.376 828.029 269.496 827.191 269.496 824.836C269.496 822.637 268.135 821.93 265.963 821.485L263.267 820.935C260.624 820.386 258.609 818.998 258.609 815.805C258.609 812.69 261.121 810.596 265.073 810.596C268.764 810.596 271.59 812.245 271.97 815.884L269.483 816.407C269.169 813.92 267.782 812.559 265.034 812.559C262.757 812.559 261.187 813.685 261.187 815.569C261.187 817.376 262.155 818.318 264.223 818.763L266.945 819.339C269.824 819.941 272.074 821.223 272.074 824.6C272.074 827.479 269.928 830.071 265.283 830.071C260.546 830.084 258.138 827.519 257.824 824.103Z" fill="#FF931E"/>
<path d="M275.738 811.028H279.272L284.192 825.333C284.506 826.249 284.559 826.406 284.663 827.087H284.716C284.82 826.406 284.873 826.249 285.187 825.333L290.107 811.028H293.64V829.626H291.363V815.268C291.363 814.509 291.389 813.881 291.468 813.279H291.363C291.311 813.646 291.049 814.771 290.814 815.399L285.893 829.626H283.485L278.565 815.399C278.33 814.771 278.068 813.646 278.015 813.279H277.911C277.989 813.881 278.015 814.509 278.015 815.268V829.626H275.738V811.028Z" fill="#FF931E"/>
<path d="M424.501 813.122V819.038H433.099V821.132H424.501V829.626H422.015V811.028H433.544V813.122H424.501Z" fill="#FF931E"/>
<path d="M437.208 811.028H439.694V827.532H448.292V829.626H437.208V811.028Z" fill="#FF931E"/>
<path d="M462.202 824.26H454.612L452.702 829.626H450.137L457.177 811.028H459.637L466.678 829.626H464.113L462.202 824.26ZM461.469 822.166L458.878 814.902C458.721 814.483 458.564 814.038 458.433 813.489H458.381C458.25 814.038 458.093 814.483 457.936 814.902L455.345 822.166H461.469Z" fill="#FF931E"/>
<path d="M473.849 813.122V829.626H471.363V813.122H465.526V811.028H479.698V813.122H473.849Z" fill="#FF931E"/>
<path d="M619.105 811.028H622.114L630.005 824.574C630.529 825.49 630.869 826.171 631.157 826.956H631.209C631.157 826.302 631.131 825.621 631.131 824.495V811.028H633.355V829.626H630.346L622.455 816.08C621.931 815.164 621.591 814.536 621.303 813.698H621.251C621.303 814.352 621.329 815.033 621.329 816.158V829.626H619.105V811.028Z" fill="#FF931E"/>
<path d="M650.315 829.639H638.603V811.041H650.132V813.135H641.089V819.051H649.687V821.145H641.089V827.532H650.315V829.639Z" fill="#FF931E"/>
<path d="M656.727 811.028V822.977C656.727 825.961 658.376 827.872 661.386 827.872C664.396 827.872 666.044 825.961 666.044 822.977V811.028H668.531V823.134C668.531 827.27 665.992 830.084 661.386 830.084C656.78 830.084 654.228 827.283 654.228 823.134V811.028H656.727Z" fill="#FF931E"/>
<path d="M673.399 811.028H676.932L681.853 825.333C682.167 826.249 682.219 826.406 682.324 827.087H682.376C682.481 826.406 682.533 826.249 682.847 825.333L687.767 811.028H691.301V829.626H689.024V815.268C689.024 814.509 689.05 813.881 689.128 813.279H689.024C688.971 813.646 688.71 814.771 688.474 815.399L683.554 829.626H681.146L676.226 815.399C675.99 814.771 675.728 813.646 675.676 813.279H675.571C675.65 813.881 675.676 814.509 675.676 815.268V829.626H673.399V811.028Z" fill="#FF931E"/>
<path d="M695.122 820.333C695.122 814.261 698.472 810.583 703.641 810.583C708.771 810.583 712.134 814.248 712.134 820.333C712.134 826.354 708.784 830.084 703.641 830.084C698.472 830.084 695.122 826.275 695.122 820.333ZM709.503 820.333C709.503 815.569 707.357 812.677 703.641 812.677C699.924 812.677 697.752 815.556 697.752 820.333C697.752 824.993 699.924 827.99 703.641 827.99C707.357 827.99 709.503 825.071 709.503 820.333Z" fill="#FF931E"/>
<path d="M722.184 821.904H718.415V829.639H715.929V811.041H722.812C727.68 811.041 728.976 813.763 728.976 816.486C728.976 818.58 727.902 820.857 724.788 821.564L729.551 829.639H726.751L722.184 821.904ZM718.415 819.81H722.524C725.403 819.81 726.345 818.344 726.345 816.486C726.345 814.575 725.377 813.135 722.524 813.135H718.415V819.81Z" fill="#FF931E"/>
<path d="M746.262 816.538C746.262 819.888 743.802 822.035 739.942 822.035H735.833V829.639H733.346V811.041H739.942C743.802 811.028 746.262 813.174 746.262 816.538ZM743.645 816.538C743.645 814.47 742.101 813.135 739.693 813.135H735.846V819.954H739.693C742.101 819.941 743.645 818.606 743.645 816.538Z" fill="#FF931E"/>
<path d="M763.771 829.639H761.285V821.171H751.902V829.639H749.416V811.041H751.902V819.09H761.285V811.041H763.771V829.639Z" fill="#FF931E"/>
<path d="M769.019 829.639V811.041H771.505V829.639H769.019Z" fill="#FF931E"/>
<path d="M774.908 824.103L777.42 823.736C777.761 826.014 779.174 828.029 782.445 828.029C784.461 828.029 786.581 827.191 786.581 824.836C786.581 822.637 785.22 821.93 783.047 821.485L780.352 820.935C777.708 820.386 775.693 818.998 775.693 815.805C775.693 812.69 778.205 810.596 782.157 810.596C785.848 810.596 788.687 812.245 789.054 815.884L786.567 816.407C786.253 813.92 784.866 812.559 782.118 812.559C779.841 812.559 778.271 813.685 778.271 815.569C778.271 817.376 779.239 818.318 781.307 818.763L784.029 819.339C786.908 819.941 789.158 821.223 789.158 824.6C789.158 827.479 787.012 830.071 782.367 830.071C777.63 830.084 775.222 827.519 774.908 824.103Z" fill="#FF931E"/>
<path d="M792.836 811.028H796.369L801.289 825.333C801.603 826.249 801.656 826.406 801.76 827.087H801.813C801.917 826.406 801.97 826.249 802.284 825.333L807.204 811.028H810.737V829.626H808.46V815.268C808.46 814.509 808.487 813.881 808.565 813.279H808.46C808.408 813.646 808.146 814.771 807.911 815.399L802.99 829.626H800.583L795.662 815.399C795.427 814.771 795.165 813.646 795.113 813.279H795.008C795.087 813.881 795.113 814.509 795.113 815.268V829.626H792.836V811.028Z" fill="#FF931E"/>
<path d="M0.0141602 121.431C0.0141602 110.267 5.35329 99.7179 15.1155 93.776L20.7556 97.5977C12.8778 103.906 8.87345 111.248 8.87345 121.431C8.87345 131.561 12.9301 139.138 20.8865 145.512L14.88 149.7C5.40564 143.327 0.0141602 132.398 0.0141602 121.431Z" fill="#00BFFF"/>
<path d="M47.6737 131.914H28.5156V125.305L45.9201 99.0373H56.6507V124.755H62.5918V131.914H56.6507V141.193H47.6737V131.914ZM47.6737 124.755V112.806C47.6737 111.052 47.6737 109.586 47.8569 107.23H47.7915C47.1241 109.115 46.5744 110.201 45.3705 111.955L38.9452 121.666C37.9769 123.119 37.3095 124.035 36.5767 124.755H47.6737Z" fill="#00BFFF"/>
<path d="M70.2342 145.499C78.1775 139.125 82.2473 131.547 82.2473 121.418C82.2473 111.222 78.2429 103.893 70.3651 97.5846L76.0052 93.7629C85.7674 99.7048 91.1066 110.267 91.1066 121.418C91.1066 132.398 85.7151 143.313 76.2538 149.687L70.2342 145.499Z" fill="#00BFFF"/>
<defs>
<pattern id="pattern0" patternContentUnits="objectBoundingBox" width="1" height="1">
<use xlink:href="#image0"/>
</pattern>
<image id="image0" xlink:href="data:image/jpeg;base64,/9j/4AAQSkZJRgABAgEAQgBCAAD/7AARRHVja3kAAQAEAAAAHgAA/+4AIUFkb2JlAGTAAAAAAQMA"/>
</defs>
</svg>

<?xml version="1.0" encoding="utf-8"?>
<!-- Generator: Adobe Illustrator 25.2.3, SVG Export Plug-In . SVG Version: 6.00 Build 0)  -->
<svg version="1.1" id="Camada_1" xmlns="http://www.w3.org/2000/svg" xmlns:xlink="http://www.w3.org/1999/xlink" x="0px" y="0px"
	 viewBox="0 0 811 831" style="enable-background:new 0 0 811 831;" xml:space="preserve">
<style type="text/css">
	.st0{fill:#FFFFFF;}
	.st1{fill:none;stroke:#00BFFF;stroke-width:3;stroke-linecap:round;stroke-linejoin:round;stroke-miterlimit:10;}
	.st2{opacity:0.79;}
	.st3{fill:none;}
	
		.st4{opacity:0.64;fill:none;stroke:#FFFFFF;stroke-width:19;stroke-linecap:round;stroke-miterlimit:10;enable-background:new    ;}
	.st5{fill:#00BFFF;}
</style>
<path class="st0" d="M559.5,713.5H348.6c-48.1,0-87-39-87-87V88.6c0-48.1,39-87,87-87h210.9c48.1,0,87,39,87,87v537.9
	C646.6,674.5,607.6,713.5,559.5,713.5z"/>
<path class="st0" d="M454.7,682.6c18.6,0,33.7-15.1,33.7-33.7c0-18.6-15.1-33.7-33.7-33.7c-18.6,0-33.7,15.1-33.7,33.7
	C421,667.5,436.1,682.6,454.7,682.6z"/>
<path class="st1" d="M559.5,713.5H348.6c-48.1,0-87-39-87-87V88.6c0-48.1,39-87,87-87h210.9c48.1,0,87,39,87,87v537.9
	C646.6,674.5,607.6,713.5,559.5,713.5z"/>
<path class="st1" d="M454.7,682.6c18.6,0,33.7-15.1,33.7-33.7c0-18.6-15.1-33.7-33.7-33.7c-18.6,0-33.7,15.1-33.7,33.7
	C421,667.5,436.1,682.6,454.7,682.6z"/>
<g class="st2">
	<rect x="283.2" y="68.7" class="st3" width="337" height="519.7"/>
</g>
<path class="st4" d="M619.4,200.1l-83.2,85.2 M616.4,119.9L500.3,228.6 M409.6,464.3L282.8,595.9"/>
<path class="st1" d="M623.2,69h-341v520h341V69z"/>
<path class="st5" d="M0,121.4c0-11.2,5.3-21.7,15.1-27.7l5.6,3.8c-7.9,6.3-11.9,13.7-11.9,23.8c0,10.1,4.1,17.7,12,24.1l-6,4.2
	C5.4,143.3,0,132.4,0,121.4z"/>
<path class="st5" d="M47.7,131.9H28.5v-6.6L45.9,99h10.7v25.7h5.9v7.2h-5.9v9.3h-9V131.9z M47.7,124.8v-11.9c0-1.8,0-3.2,0.2-5.6
	h-0.1c-0.7,1.9-1.2,3-2.4,4.7l-6.4,9.7c-1,1.5-1.6,2.4-2.4,3.1H47.7z"/>
<path class="st5" d="M70.2,145.5c7.9-6.4,12-14,12-24.1c0-10.2-4-17.5-11.9-23.8l5.6-3.8c9.8,5.9,15.1,16.5,15.1,27.7
	c0,11-5.4,21.9-14.9,28.3L70.2,145.5z"/>
</svg>
